svg/free/envelope-open.svg

<svg version="1.1" xmlns="http://www.w3.org/2000/svg" width="24" height="24" viewBox="0 0 24 24">
<title>envelope-open</title>
<path d="M12.872 1.201c-0.242-0.175-0.545-0.279-0.872-0.279s-0.63 0.105-0.876 0.282l0.004-0.003-10.378 7.413v14.636h22.5v-14.636zM21.75 18.876l-5.814-3.737 5.814-4.522zM12 2.422l9.301 6.644-6.703 5.213-2.598-1.67-2.598 1.67-6.703-5.213zM2.25 10.617l5.814 4.522-5.814 3.737zM21.75 21.75h-19.5v-1.091l9.75-6.268 9.75 6.268z"></path>
</svg>

<svg xmlns="http://www.w3.org/2000/svg" width="24" height="24" viewBox="0 0 24 24"><path d="M12.872 1.201a1.496 1.496 0 00-1.748.003l.004-.003L.75 8.614V23.25h22.5V8.614zm8.878 17.675l-5.814-3.737 5.814-4.522zM12 2.422l9.301 6.644-6.703 5.213L12 12.609l-2.598 1.67-6.703-5.213zm-9.75 8.195l5.814 4.522-5.814 3.737zm19.5 11.133H2.25v-1.091L12 14.391l9.75 6.268z"/></svg>
